X:1
T: Mac's Jig
C:
R:Jig
Q:180
K:G
M:6/8
L:1/16
|:g6e6|d2e2d2 c2B2A2|G6B6|d2e2d2 d2e2f2|
g4G2 A2c2A2|G2B2G2 A4(3def|g4d2 e2c2A2|1d2A2F2 G4d2:|2d2A2F2 G4A2|
B6G6|c2B2A2 A2G2F2|d6B6|e2d2c2 c2B2A2|
f6d6|g6e2^c2^A2|d2B2G2 d2A2F2|G6G4A2|
B6g6|f2^d2A2 A2^c2d2|e4g2 e4g2|a2f2d2 d2e2f2|
g2b2a2 g4d2|e2c'2e2 d4c2|B2g2B2 A2g2f2|g6G6||
